src/assets/img/order_up.svg

<svg width="19" height="20" viewBox="0 0 19 20" fill="none" xmlns="http://www.w3.org/2000/svg">
<path fill-rule="evenodd" clip-rule="evenodd" d="M4 0.195262C4.26035 -0.0650874 4.68246 -0.0650874 4.94281 0.195262L8.94281 4.19526L8 5.13807L5.13807 2.27614V20H3.80474V2.27614L0.942809 5.13807L0 4.19526L4 0.195262ZM15.1381 1.33333C14.0335 1.33333 13.1381 2.22876 13.1381 3.33333V5.33333H17.1381V3.33333C17.1381 2.22876 16.2426 1.33333 15.1381 1.33333ZM17.1381 6.66667V9.33333H18.4714V3.33333C18.4714 1.49238 16.979 9.93411e-09 15.1381 9.93411e-09C13.2971 9.93411e-09 11.8047 1.49238 11.8047 3.33333V9.33333H13.1381V6.66667H17.1381ZM11.8047 10.6667H15.8047C17.2775 10.6667 18.4714 11.8606 18.4714 13.3333C18.4714 14.1298 18.1222 14.8447 17.5686 15.3333C18.1222 15.822 18.4714 16.5369 18.4714 17.3333C18.4714 18.8061 17.2775 20 15.8047 20H11.8047V10.6667ZM15.8047 14.6667C16.5411 14.6667 17.1381 14.0697 17.1381 13.3333C17.1381 12.597 16.5411 12 15.8047 12H13.1381V14.6667H15.8047ZM13.1381 16H15.8047C16.5411 16 17.1381 16.597 17.1381 17.3333C17.1381 18.0697 16.5411 18.6667 15.8047 18.6667H13.1381V16Z" fill="#8C8C8C"/>
</svg>

<svg width="19" height="20" viewBox="0 0 19 20" fill="none" xmlns="http://www.w3.org/2000/svg"><path fill-rule="evenodd" clip-rule="evenodd" d="M4 .195c.26-.26.682-.26.943 0l4 4L8 5.138 5.138 2.276V20H3.805V2.276L.943 5.138 0 4.195l4-4zm11.138 1.138a2 2 0 0 0-2 2v2h4v-2a2 2 0 0 0-2-2zm2 5.334v2.666h1.333v-6a3.333 3.333 0 0 0-6.666 0v6h1.333V6.667h4zm-5.333 4h4a2.667 2.667 0 0 1 1.764 4.666A2.667 2.667 0 0 1 15.805 20h-4v-9.333zm4 4a1.333 1.333 0 0 0 0-2.667h-2.667v2.667h2.667zM13.138 16h2.667a1.333 1.333 0 1 1 0 2.667h-2.667V16z" fill="#8C8C8C"/></svg>
